src/logos/logo-es.svg

<svg height="78" viewBox="0 0 693 78" width="693" xmlns="http://www.w3.org/2000/svg"><g fill="none" fill-rule="evenodd"><path d="m200.1 14.7h-18.3c-15.2 0-27.5 12.3-27.5 27.4 0 7.9 3.4 15.4 9.3 20.6l-6.1 14.4 15.1-9.1c2.9 1.1 6 1.6 9.2 1.6h17.7c15 0 27.7-11.8 28.1-26.8.4-15.4-12.1-28.1-27.5-28.1zm.1 45h-18.3c-7.9 0-15.9-6.2-17.4-14-2.2-11.2 6.3-21 17.2-21h18.3c7.9 0 15.9 6.2 17.4 14 2.1 11.2-6.4 21-17.2 21z" fill="#d8352a"/><g fill="#383838" fill-rule="nonzero"><path d="m138.1 30.5c-.7-1.1-1.5-2-2.4-2.8-1-.8-2.1-1.4-3.3-1.9-1.2-.4-2.6-.7-3.9-.7-2.2-.1-4.4.4-6.3 1.4-1.7.9-3.1 2.2-4.2 3.9s-1.9 3.5-2.3 5.5c-.5 2.1-.7 4.2-.7 6.4 0 2.1.2 4.1.7 6.1.5 1.9 1.3 3.7 2.4 5.4 1.1 1.6 2.5 2.9 4.2 3.8 1.9 1 4.1 1.5 6.3 1.4 2.9.2 5.8-1 7.8-3 2-2.3 3.2-5.1 3.5-8.1h10.6c-.2 2.9-1 5.8-2.2 8.5-1.1 2.4-2.7 4.6-4.6 6.4s-4.2 3.2-6.7 4.1c-2.7 1-5.6 1.4-8.5 1.4-3.5.1-7.1-.6-10.3-2-2.9-1.2-5.6-3.1-7.7-5.5s-3.8-5.2-4.8-8.2c-1.1-3.3-1.7-6.7-1.7-10.2s.5-7.1 1.7-10.4c1.1-3.1 2.7-5.9 4.8-8.4 2.1-2.4 4.8-4.3 7.7-5.6 5.8-2.4 12.2-2.7 18.1-.8 2.4.8 4.6 1.9 6.6 3.5 2 1.5 3.6 3.5 4.8 5.6 1.3 2.4 2.1 5 2.4 7.7h-10.6c-.3-1.3-.7-2.5-1.4-3.5z"/><path d="m536.3 30.5c-.7-1.1-1.5-2-2.5-2.8s-2.1-1.4-3.3-1.9c-1.2-.4-2.6-.7-3.9-.7-2.2-.1-4.4.4-6.3 1.4-1.7.9-3.1 2.2-4.2 3.9s-1.9 3.5-2.3 5.5c-.5 2.1-.7 4.2-.7 6.4 0 2.1.2 4.1.7 6.1.5 1.9 1.3 3.7 2.3 5.4 1.1 1.6 2.5 2.9 4.2 3.8 1.9 1 4.1 1.5 6.3 1.4 2.9.2 5.8-.9 7.9-3 2-2.3 3.2-5.1 3.5-8.2h10.6c-.2 2.9-1 5.8-2.2 8.5-1.1 2.4-2.7 4.6-4.6 6.4s-4.2 3.2-6.7 4.1c-2.7 1-5.6 1.4-8.5 1.4-3.5.1-7.1-.6-10.3-2-2.9-1.3-5.6-3.1-7.7-5.5s-3.8-5.2-4.8-8.2c-1.1-3.3-1.7-6.7-1.7-10.2s.5-7.1 1.7-10.4c1.1-3.1 2.7-5.9 4.8-8.4 2.1-2.4 4.8-4.3 7.7-5.6 5.8-2.4 12.2-2.7 18.1-.8 2.4.8 4.6 1.9 6.5 3.5 2 1.5 3.6 3.5 4.8 5.6 1.3 2.4 2.1 5 2.4 7.7h-10.6c-.1-1.2-.5-2.4-1.2-3.4z"/><path d="m243.5 17.1 20.9 33.5h.1v-33.5h10.3v50h-11l-20.8-33.5h-.1v33.5h-10.2v-50z"/><path d="m294.6 67.1-16.2-50h11.3l11.1 35.1h.1l11.3-35.1h11.3l-16.5 50z"/><path d="m364.4 17.1v9.2h-26.4v10.7h24.2v8.5h-24.2v12.2h27v9.2h-38v-50z"/><path d="m395.6 17.1c2.1 0 4.1.3 6.1 1.1 1.7.7 3.3 1.7 4.6 3 1.3 1.2 2.3 2.7 2.9 4.4.7 1.7 1 3.5 1 5.4.1 2.7-.6 5.3-1.9 7.6-1.4 2.3-3.5 4-6.1 4.9v.1c1.2.3 2.4.9 3.4 1.7.9.8 1.6 1.7 2.2 2.7.6 1.1 1 2.3 1.2 3.5.3 1.2.4 2.5.5 3.8 0 .8.1 1.7.1 2.8s.1 2.2.2 3.3.3 2.1.6 3.2c.2.9.6 1.8 1.1 2.6h-11c-.7-1.8-1-3.7-1.1-5.7-.1-2.2-.4-4.3-.6-6.3-.2-2.1-1-4.1-2.4-5.7-1.2-1.2-3.2-1.8-6-1.8h-11v19.6h-11v-50zm-3.9 22.6c2.5 0 4.4-.6 5.7-1.7s1.9-2.9 1.9-5.5c0-2.4-.6-4.2-1.9-5.3s-3.2-1.6-5.7-1.6h-12v14.1z"/><path d="m425 54.8c.6 1.1 1.4 2.1 2.4 2.8 1.1.8 2.3 1.3 3.6 1.6 1.4.4 2.8.5 4.2.5 1.1 0 2.1-.1 3.1-.2 1.1-.2 2.2-.5 3.1-.9 1-.4 1.8-1.1 2.5-1.9.7-.9 1-2 1-3.1.1-1.2-.4-2.4-1.3-3.3-1-.9-2.1-1.6-3.4-2.1-1.5-.6-3.1-1.1-4.8-1.5-1.8-.4-3.6-.9-5.4-1.4-1.9-.5-3.7-1-5.5-1.7-1.7-.6-3.3-1.5-4.8-2.6-1.4-1.1-2.6-2.4-3.4-4-.9-1.8-1.4-3.8-1.3-5.8-.1-2.3.5-4.6 1.6-6.7 1.1-1.9 2.5-3.5 4.3-4.7 1.8-1.3 3.8-2.2 6-2.8s4.4-.9 6.7-.9c2.5 0 5.1.3 7.5.9 2.3.5 4.5 1.5 6.4 2.8s3.4 3 4.5 5c1.1 2.3 1.7 4.8 1.6 7.3h-10.6c0-1.3-.4-2.6-.9-3.7-.5-.9-1.2-1.7-2.1-2.3s-1.9-1-3-1.2c-1.2-.2-2.5-.4-3.8-.4-.9 0-1.8.1-2.7.3s-1.7.5-2.4 1-1.3 1-1.8 1.8-.7 1.7-.7 2.7c0 .8.2 1.7.6 2.4.6.8 1.3 1.3 2.2 1.7 1.5.6 3 1.2 4.5 1.5 1.9.5 4.5 1.2 7.6 2 .9.2 2.2.5 3.9 1 1.8.5 3.4 1.3 4.9 2.3 1.7 1.1 3.1 2.6 4.2 4.3 1.3 2.1 1.9 4.5 1.8 6.9 0 2.2-.4 4.4-1.3 6.4s-2.3 3.7-4 5.1c-1.9 1.5-4.1 2.6-6.5 3.3-2.9.8-6 1.2-9 1.2-2.7 0-5.4-.3-8-1-2.5-.6-4.8-1.7-6.9-3.2-2-1.4-3.6-3.3-4.7-5.5-1.2-2.5-1.8-5.2-1.7-8h10.6c.3 1.3.6 2.7 1.2 4.1z"/><path d="m485.7 17.1 18.7 50h-11.4l-3.8-11.1h-18.7l-3.9 11.1h-11.1l18.9-50zm.7 30.7-6.3-18.3h-.1l-6.5 18.3z"/><path d="m563.4 17.1v50h-11v-50z"/><path d="m630.3 17.1 20.9 33.5h.1v-33.5h10.3v50h-11l-20.8-33.5h-.1v33.5h-10.3v-50z"/><path d="m11 17v40.7h24.3v9.3h-35.3v-50z"/><path d="m69 17 18.6 50h-11.4l-3.8-11.2h-18.6l-4 11.2h-11l18.9-50zm.6 30.7-6.3-18.3h-.1l-6.6 18.3z"/><path d="m568.6 31.9c1.1-3.1 2.7-5.9 4.8-8.4 2.1-2.4 4.8-4.3 7.7-5.6 6.6-2.7 14.1-2.7 20.7 0 2.9 1.3 5.6 3.2 7.7 5.6s3.8 5.3 4.8 8.4c1.1 3.3 1.7 6.9 1.6 10.4 0 3.5-.5 6.9-1.7 10.2-1.1 3-2.7 5.8-4.8 8.2s-4.8 4.2-7.7 5.5c-6.6 2.7-14.1 2.7-20.7 0-2.9-1.3-5.6-3.1-7.7-5.5s-3.8-5.2-4.8-8.2c-1.1-3.3-1.7-6.7-1.7-10.2s.6-7 1.8-10.4zm10 16.5c.5 1.9 1.3 3.7 2.4 5.4 1.1 1.6 2.5 2.9 4.2 3.8 4 1.9 8.6 1.9 12.6 0 1.7-.9 3.1-2.2 4.2-3.8s1.9-3.4 2.3-5.4c.5-2 .7-4.1.7-6.1 0-2.1-.3-4.3-.8-6.3-.4-2-1.2-3.8-2.3-5.5-1.1-1.6-2.5-2.9-4.2-3.9-4-1.9-8.6-1.9-12.6 0-1.7.9-3.1 2.2-4.2 3.9s-1.9 3.5-2.3 5.5c-.5 2.1-.7 4.2-.7 6.4 0 2 .2 4.1.7 6zm14.6-48.1-7.4 12.4h6.9l11.5-12.4z"/></g></g></svg>

<?xml version="1.0" encoding="UTF-8"?>
<svg width="693px" height="78px" viewBox="0 0 693 78" version="1.1" xmlns="http://www.w3.org/2000/svg" xmlns:xlink="http://www.w3.org/1999/xlink">
    <!-- Generator: Sketch 55.1 (78136) - https://sketchapp.com -->
    <title>logo-es</title>
    <desc>Created with Sketch.</desc>
    <g id="logo-es" stroke="none" stroke-width="1" fill="none" fill-rule="evenodd">
        <g id="TC_Horizontal-ESP">
            <path d="M200.1,14.7 L181.8,14.7 C166.6,14.7 154.3,27 154.3,42.1 C154.3,50 157.7,57.5 163.6,62.7 L157.5,77.1 L172.6,68 C175.5,69.1 178.6,69.6 181.8,69.6 L199.5,69.6 C214.5,69.6 227.2,57.8 227.6,42.8 C228,27.4 215.5,14.7 200.1,14.7 L200.1,14.7 Z M200.2,59.7 L181.9,59.7 C174,59.7 166,53.5 164.5,45.7 C162.3,34.5 170.8,24.7 181.7,24.7 L200,24.7 C207.9,24.7 215.9,30.9 217.4,38.7 C219.5,49.9 211,59.7 200.2,59.7 L200.2,59.7 Z" id="Shape" fill="#D8352A"></path>
            <path d="M138.1,30.5 C137.4,29.4 136.6,28.5 135.7,27.7 C134.7,26.9 133.6,26.3 132.4,25.8 C131.2,25.4 129.8,25.1 128.5,25.1 C126.3,25 124.1,25.5 122.2,26.5 C120.5,27.4 119.1,28.7 118,30.4 C116.9,32.1 116.1,33.9 115.7,35.9 C115.2,38 115,40.1 115,42.3 C115,44.4 115.2,46.4 115.7,48.4 C116.2,50.3 117,52.1 118.1,53.8 C119.2,55.4 120.6,56.7 122.3,57.6 C124.2,58.6 126.4,59.1 128.6,59 C131.5,59.2 134.4,58 136.4,56 C138.4,53.7 139.6,50.9 139.9,47.9 L150.5,47.9 C150.3,50.8 149.5,53.7 148.3,56.4 C147.2,58.8 145.6,61 143.7,62.8 C141.8,64.6 139.5,66 137,66.9 C134.3,67.9 131.4,68.3 128.5,68.3 C125,68.4 121.4,67.7 118.2,66.3 C115.3,65.1 112.6,63.2 110.5,60.8 C108.4,58.4 106.7,55.6 105.7,52.6 C104.6,49.3 104,45.9 104,42.4 C104,38.9 104.5,35.3 105.7,32 C106.8,28.9 108.4,26.1 110.5,23.6 C112.6,21.2 115.3,19.3 118.2,18 C124,15.6 130.4,15.3 136.3,17.2 C138.7,18 140.9,19.1 142.9,20.7 C144.9,22.2 146.5,24.2 147.7,26.3 C149,28.7 149.8,31.3 150.1,34 L139.5,34 C139.2,32.7 138.8,31.5 138.1,30.5 Z" id="Path" fill="#383838" fill-rule="nonzero"></path>
            <path d="M536.3,30.5 C535.6,29.4 534.8,28.5 533.8,27.7 C532.8,26.9 531.7,26.3 530.5,25.8 C529.3,25.4 527.9,25.1 526.6,25.1 C524.4,25 522.2,25.5 520.3,26.5 C518.6,27.4 517.2,28.7 516.1,30.4 C515,32.1 514.2,33.9 513.8,35.9 C513.3,38 513.1,40.1 513.1,42.3 C513.1,44.4 513.3,46.4 513.8,48.4 C514.3,50.3 515.1,52.1 516.1,53.8 C517.2,55.4 518.6,56.7 520.3,57.6 C522.2,58.6 524.4,59.1 526.6,59 C529.5,59.2 532.4,58.1 534.5,56 C536.5,53.7 537.7,50.9 538,47.8 L548.6,47.8 C548.4,50.7 547.6,53.6 546.4,56.3 C545.3,58.7 543.7,60.9 541.8,62.7 C539.9,64.5 537.6,65.9 535.1,66.8 C532.4,67.8 529.5,68.2 526.6,68.2 C523.1,68.3 519.5,67.6 516.3,66.2 C513.4,64.9 510.7,63.1 508.6,60.7 C506.5,58.3 504.8,55.5 503.8,52.5 C502.7,49.2 502.1,45.8 502.1,42.3 C502.1,38.8 502.6,35.2 503.8,31.9 C504.9,28.8 506.5,26 508.6,23.5 C510.7,21.1 513.4,19.2 516.3,17.9 C522.1,15.5 528.5,15.2 534.4,17.1 C536.8,17.9 539,19 540.9,20.6 C542.9,22.1 544.5,24.1 545.7,26.2 C547,28.6 547.8,31.2 548.1,33.9 L537.5,33.9 C537.4,32.7 537,31.5 536.3,30.5 Z" id="Path" fill="#383838" fill-rule="nonzero"></path>
            <polygon id="Path" fill="#383838" fill-rule="nonzero" points="243.5 17.1 264.4 50.6 264.5 50.6 264.5 17.1 274.8 17.1 274.8 67.1 263.8 67.1 243 33.6 242.9 33.6 242.9 67.1 232.7 67.1 232.7 17.1"></polygon>
            <polygon id="Path" fill="#383838" fill-rule="nonzero" points="294.6 67.1 278.4 17.1 289.7 17.1 300.8 52.2 300.9 52.2 312.2 17.1 323.5 17.1 307 67.1"></polygon>
            <polygon id="Path" fill="#383838" fill-rule="nonzero" points="364.4 17.1 364.4 26.3 338 26.3 338 37 362.2 37 362.2 45.5 338 45.5 338 57.7 365 57.7 365 66.9 327 66.9 327 16.9"></polygon>
            <path d="M395.6,17.1 C397.7,17.1 399.7,17.4 401.7,18.2 C403.4,18.9 405,19.9 406.3,21.2 C407.6,22.4 408.6,23.9 409.2,25.6 C409.9,27.3 410.2,29.1 410.2,31 C410.3,33.7 409.6,36.3 408.3,38.6 C406.9,40.9 404.8,42.6 402.2,43.5 L402.2,43.6 C403.4,43.9 404.6,44.5 405.6,45.3 C406.5,46.1 407.2,47 407.8,48 C408.4,49.1 408.8,50.3 409,51.5 C409.3,52.7 409.4,54 409.5,55.3 C409.5,56.1 409.6,57 409.6,58.1 C409.6,59.2 409.7,60.3 409.8,61.4 C409.9,62.5 410.1,63.5 410.4,64.6 C410.6,65.5 411,66.4 411.5,67.2 L400.5,67.2 C399.8,65.4 399.5,63.5 399.4,61.5 C399.3,59.3 399,57.2 398.8,55.2 C398.6,53.1 397.8,51.1 396.4,49.5 C395.2,48.3 393.2,47.7 390.4,47.7 L379.4,47.7 L379.4,67.3 L368.4,67.3 L368.4,17.3 L395.6,17.1 Z M391.7,39.7 C394.2,39.7 396.1,39.1 397.4,38 C398.7,36.9 399.3,35.1 399.3,32.5 C399.3,30.1 398.7,28.3 397.4,27.2 C396.1,26.1 394.2,25.6 391.7,25.6 L379.7,25.6 L379.7,39.7 L391.7,39.7 Z" id="Shape" fill="#383838" fill-rule="nonzero"></path>
            <path d="M425,54.8 C425.6,55.9 426.4,56.9 427.4,57.6 C428.5,58.4 429.7,58.9 431,59.2 C432.4,59.6 433.8,59.7 435.2,59.7 C436.3,59.7 437.3,59.6 438.3,59.5 C439.4,59.3 440.5,59 441.4,58.6 C442.4,58.2 443.2,57.5 443.9,56.7 C444.6,55.8 444.9,54.7 444.9,53.6 C445,52.4 444.5,51.2 443.6,50.3 C442.6,49.4 441.5,48.7 440.2,48.2 C438.7,47.6 437.1,47.1 435.4,46.7 C433.6,46.3 431.8,45.8 430,45.3 C428.1,44.8 426.3,44.3 424.5,43.6 C422.8,43 421.2,42.1 419.7,41 C418.3,39.9 417.1,38.6 416.3,37 C415.4,35.2 414.9,33.2 415,31.2 C414.9,28.9 415.5,26.6 416.6,24.5 C417.7,22.6 419.1,21 420.9,19.8 C422.7,18.5 424.7,17.6 426.9,17 C429.1,16.4 431.3,16.1 433.6,16.1 C436.1,16.1 438.7,16.4 441.1,17 C443.4,17.5 445.6,18.5 447.5,19.8 C449.4,21.1 450.9,22.8 452,24.8 C453.1,27.1 453.7,29.6 453.6,32.1 L443,32.1 C443,30.8 442.6,29.5 442.1,28.4 C441.6,27.5 440.9,26.7 440,26.1 C439.1,25.5 438.1,25.1 437,24.9 C435.8,24.7 434.5,24.5 433.2,24.5 C432.3,24.5 431.4,24.6 430.5,24.8 C429.6,25 428.8,25.3 428.1,25.8 C427.4,26.3 426.8,26.8 426.3,27.6 C425.8,28.4 425.6,29.3 425.6,30.3 C425.6,31.1 425.8,32 426.2,32.7 C426.8,33.5 427.5,34 428.4,34.4 C429.9,35 431.4,35.6 432.9,35.9 C434.8,36.4 437.4,37.1 440.5,37.9 C441.4,38.1 442.7,38.4 444.4,38.9 C446.2,39.4 447.8,40.2 449.3,41.2 C451,42.3 452.4,43.8 453.5,45.5 C454.8,47.6 455.4,50 455.3,52.4 C455.3,54.6 454.9,56.8 454,58.8 C453.1,60.8 451.7,62.5 450,63.9 C448.1,65.4 445.9,66.5 443.5,67.2 C440.6,68 437.5,68.4 434.5,68.4 C431.8,68.4 429.1,68.1 426.5,67.4 C424,66.8 421.7,65.7 419.6,64.2 C417.6,62.8 416,60.9 414.9,58.7 C413.7,56.2 413.1,53.5 413.2,50.7 L423.8,50.7 C424.1,52 424.4,53.4 425,54.8 Z" id="Path" fill="#383838" fill-rule="nonzero"></path>
            <path d="M485.7,17.1 L504.4,67.1 L493,67.1 L489.2,56 L470.5,56 L466.6,67.1 L455.5,67.1 L474.4,17.1 L485.7,17.1 Z M486.4,47.8 L480.1,29.5 L480,29.5 L473.5,47.8 L486.4,47.8 Z" id="Shape" fill="#383838" fill-rule="nonzero"></path>
            <polygon id="Path" fill="#383838" fill-rule="nonzero" points="563.4 17.1 563.4 67.1 552.4 67.1 552.4 17.1"></polygon>
            <polygon id="Path" fill="#383838" fill-rule="nonzero" points="630.3 17.1 651.2 50.6 651.3 50.6 651.3 17.1 661.6 17.1 661.6 67.1 650.6 67.1 629.8 33.6 629.7 33.6 629.7 67.1 619.4 67.1 619.4 17.1"></polygon>
            <polygon id="Path" fill="#383838" fill-rule="nonzero" points="11 17 11 57.7 35.3 57.7 35.3 67 0 67 0 17"></polygon>
            <path d="M69,17 L87.6,67 L76.2,67 L72.4,55.8 L53.8,55.8 L49.8,67 L38.8,67 L57.7,17 L69,17 Z M69.6,47.7 L63.3,29.4 L63.2,29.4 L56.6,47.7 L69.6,47.7 Z" id="Shape" fill="#383838" fill-rule="nonzero"></path>
            <path d="M568.6,31.9 C569.7,28.8 571.3,26 573.4,23.5 C575.5,21.1 578.2,19.2 581.1,17.9 C587.7,15.2 595.2,15.2 601.8,17.9 C604.7,19.2 607.4,21.1 609.5,23.5 C611.6,25.9 613.3,28.8 614.3,31.9 C615.4,35.2 616,38.8 615.9,42.3 C615.9,45.8 615.4,49.2 614.2,52.5 C613.1,55.5 611.5,58.3 609.4,60.7 C607.3,63.1 604.6,64.9 601.7,66.2 C595.1,68.9 587.6,68.9 581,66.2 C578.1,64.9 575.4,63.1 573.3,60.7 C571.2,58.3 569.5,55.5 568.5,52.5 C567.4,49.2 566.8,45.8 566.8,42.3 C566.8,38.8 567.4,35.3 568.6,31.9 Z M578.6,48.4 C579.1,50.3 579.9,52.1 581,53.8 C582.1,55.4 583.5,56.7 585.2,57.6 C589.2,59.5 593.8,59.5 597.8,57.6 C599.5,56.7 600.9,55.4 602,53.8 C603.1,52.2 603.9,50.4 604.3,48.4 C604.8,46.4 605,44.3 605,42.3 C605,40.2 604.7,38 604.2,36 C603.8,34 603,32.2 601.9,30.5 C600.8,28.9 599.4,27.6 597.7,26.6 C593.7,24.7 589.1,24.7 585.1,26.6 C583.4,27.5 582,28.8 580.9,30.5 C579.8,32.2 579,34 578.6,36 C578.1,38.1 577.9,40.2 577.9,42.4 C577.9,44.4 578.1,46.5 578.6,48.4 L578.6,48.4 Z M593.2,0.3 L585.8,12.7 L592.7,12.7 L604.2,0.3 L593.2,0.3 Z" id="Shape" fill="#383838" fill-rule="nonzero"></path>
        </g>
    </g>
</svg>
